src/front_end/assets/images/svg/icon_pie_chart_events.svg

<svg xmlns="http://www.w3.org/2000/svg" width="12" height="18" viewBox="0 0 12 18"><path fill="#5E6D81" d="M1.76 1.76C2.934.587 4.348 0 6 0s3.065.587 4.24 1.76C11.412 2.934 12 4.347 12 6c0 1.042-.257 2.02-.77 2.938l-4.897 8.875c-.07.125-.18.187-.333.187s-.264-.062-.334-.188L.77 8.938C.258 8.062 0 7.083 0 6c0-1.653.586-3.066 1.76-4.24zm2.646 5.834c.438.437.97.656 1.594.656s1.156-.22 1.594-.656.656-.97.656-1.594-.22-1.156-.656-1.594S6.624 3.75 6 3.75s-1.156.22-1.594.656S3.75 5.376 3.75 6s.22 1.156.656 1.594z"/></svg>

<?xml version="1.0" encoding="utf-8"?>
<!-- Generator: Adobe Illustrator 16.0.0, SVG Export Plug-In . SVG Version: 6.00 Build 0)  -->
<!DOCTYPE svg PUBLIC "-//W3C//DTD SVG 1.1//EN" "http://www.w3.org/Graphics/SVG/1.1/DTD/svg11.dtd">
<svg version="1.1" xmlns="http://www.w3.org/2000/svg" xmlns:xlink="http://www.w3.org/1999/xlink" x="0px" y="0px" width="12px"
	 height="18px" viewBox="0 0 12 18" enable-background="new 0 0 12 18" xml:space="preserve">
<g id="Layer_2">
</g>
<g id="Layer_1">
	<g>
		<path fill="#5E6D81" d="M1.76,1.76C2.934,0.587,4.348,0,6,0s3.065,0.587,4.239,1.76C11.413,2.934,12,4.347,12,6
			c0,1.042-0.257,2.021-0.771,2.938l-4.896,8.875C6.264,17.938,6.152,18,6,18s-0.264-0.062-0.334-0.188L0.771,8.938
			C0.257,8.062,0,7.083,0,6C0,4.347,0.586,2.934,1.76,1.76z M4.406,7.594C4.844,8.031,5.375,8.25,6,8.25s1.156-0.219,1.594-0.656
			S8.25,6.625,8.25,6S8.031,4.844,7.594,4.406S6.625,3.75,6,3.75S4.844,3.969,4.406,4.406S3.75,5.375,3.75,6
			S3.969,7.156,4.406,7.594z"/>
	</g>
</g>
</svg>
